X:578
T:An Dro
C:Skolvan "Fest Noz Live"
M:4/4
L:1/8
K:G
E2FG A3G|E2EF GGFG|\
E2FG A3G|1 E2EG F4:|2 E2EG F2GF||
E2FG A3B|BAGF E2DE|:G2FE F2FG|\
A2GF E2DE|G2FE F2FG|A2FG E4:|


